!!!OTL: 19. Khtos, metric section only
!!!Genre: Khtsos
!!!Mode: Minor
!!!One Mode: no
!!!Orig_tonic: Ab
**kern
*thru
!!pagebreak:original
*clefG2
*k[b-e-]
*B-:
!LO:TX:a:i:t=Bb-major
16b-LL
16cc
16dd
(8qff/
16ee-JJ)
16ddLL
(8qff/
16ee-)
16dd
(8qff/
16ee-JJ)
=37
8.ddL
16ccJk
16ddLL
16ccJ
8b-J
!!linebreak:original
=38
16ffLL
16gg
(8qgg/
16ff)
16ee-JJ
16ddLL
16b-
16cc
(8qff/
16ee-JJ)
=39
8.ddL
16ccJk
16ddLL
16ccJ
8b-J
=40
16b-LL
16cc
16dd
(8qff/
16ee-JJ)
16ddLL
(8qff/
16ee-)
16dd
(8qff/
16ee-JJ)
=41
8.ddL
16ccJk
16ddLL
16ccJ
8b-J
=42
16ggLL
16dd
16ee-
16ccJJ
16ddLL
16b-
16cc
16aJJ
=43
4.b-
8cc
!!linebreak:original
!!!End-Modulation
*B-:
!LO:TX:a:i:t=Bb-major
=48
16aa-XLL
16gg
16ff
16ee-JJ
16ddLL
16cc
16ff
16ee-JJ
=49
8.ddL
16ccJk
16ddLL
16ccJ
8b-J
!!linebreak:original
=50
16b-LL
16aa-X
16ff
16ggJJ
16ee-LL
16ff
16dd
16ee-JJ
=51
16ccLL
16ee-JJ
4dd
8qdd/
16ccLL
16b-JJ
!!!End-Modulation
*B-:
!LO:TX:a:i:t=Bb-major
16b-LL
16cc
16dd
(8qff/
16ee-JJ)
16ddLL
(8qff/
16ee-)
16dd
(8qff/
16ee-JJ)
=37
8.ddL
16ccJk
16ddLL
16ccJ
8b-J
!!linebreak:original
=38
16ffLL
16gg
(8qgg/
16ff)
16ee-JJ
16ddLL
16b-
16cc
(8qff/
16ee-JJ)
=39
8.ddL
16ccJk
16ddLL
16ccJ
8b-J
=40
16b-LL
16cc
16dd
(8qff/
16ee-JJ)
16ddLL
(8qff/
16ee-)
16dd
(8qff/
16ee-JJ)
=41
8.ddL
16ccJk
16ddLL
16ccJ
8b-J
=42
16ggLL
16dd
16ee-
16ccJJ
16ddLL
16b-
16cc
16aJJ
=43
4.b-
8cc
!!linebreak:original
!!!End-Modulation
*B-:
!LO:TX:a:i:t=Bb-major
=48
16aa-XLL
16gg
16ff
16ee-JJ
16ddLL
16cc
16ff
16ee-JJ
=49
8.ddL
16ccJk
16ddLL
16ccJ
8b-J
!!linebreak:original
=50
16b-LL
16aa-X
16ff
16ggJJ
16ee-LL
16ff
16dd
16ee-JJ
=51
16ccLL
16ee-JJ
4dd
8qdd/
16ccLL
16b-JJ
!!!End-Modulation
*-
